symbols/web/folder_open/materialsymbolsoutlined/folder_open_wght500_20px.svg

<svg xmlns="http://www.w3.org/2000/svg" height="20" width="20"><path d="M3.479 16.833q-.791 0-1.385-.593-.594-.594-.594-1.365V5.062q0-.791.594-1.385t1.385-.594h4.688l1.75 1.75h6.687q.792 0 1.344.594t.552 1.385H9.083l-1.729-1.75H3.479v9.813L5.5 8.562h14.229l-2.146 6.792q-.229.708-.739 1.094-.511.385-1.24.385Zm2.083-1.979h10.105l1.416-4.396H6.979Zm0 0 1.417-4.396-1.417 4.396ZM3.479 6.812v-1.75 1.75Z"/></svg>

<svg xmlns="http://www.w3.org/2000/svg" height="20" width="20"><path d="M3.479 16.833Q2.688 16.833 2.094 16.24Q1.5 15.646 1.5 14.875V5.062Q1.5 4.271 2.094 3.677Q2.688 3.083 3.479 3.083H8.167L9.917 4.833H16.604Q17.396 4.833 17.948 5.427Q18.5 6.021 18.5 6.812H9.083L7.354 5.062H3.479Q3.479 5.062 3.479 5.062Q3.479 5.062 3.479 5.062V14.875Q3.479 14.875 3.479 14.875Q3.479 14.875 3.479 14.875L5.5 8.562H19.729L17.583 15.354Q17.354 16.062 16.844 16.448Q16.333 16.833 15.604 16.833ZM5.562 14.854H15.667L17.083 10.458H6.979ZM5.562 14.854 6.979 10.458 5.562 14.854ZM3.479 6.812V5.062Q3.479 5.062 3.479 5.062Q3.479 5.062 3.479 5.062V6.812Z"/></svg>
